libs/ui/packages/crypto-icons/src/svg/JETTON.svg

<svg width="24" height="24" viewBox="0 0 24 24" fill="none" xmlns="http://www.w3.org/2000/svg">
<path fill-rule="evenodd" clip-rule="evenodd" d="M10.346 2.96273C10.6169 2.90913 10.8799 3.08527 10.9335 3.35616C10.9871 3.62705 10.811 3.8901 10.5401 3.94371C10.0227 4.04609 9.50737 4.20022 9.0004 4.409C8.49344 4.61779 8.019 4.8713 7.57959 5.16295C7.34952 5.31566 7.03921 5.25295 6.8865 5.02287C6.73379 4.7928 6.79651 4.48249 7.02658 4.32978C7.51998 4.00229 8.05206 3.71808 8.6196 3.48435L8.80795 3.94169L8.6196 3.48435C9.18714 3.25062 9.76505 3.07769 10.346 2.96273ZM13.3476 3.36189C13.4022 3.09121 13.666 2.9161 13.9366 2.97076C15.1198 3.20972 16.2471 3.67932 17.25 4.35107C17.4794 4.50475 17.5409 4.81532 17.3872 5.04475C17.2335 5.27418 16.9229 5.33559 16.6935 5.18192C15.7992 4.58291 14.7938 4.16405 13.7387 3.95097C13.468 3.89631 13.2929 3.63256 13.3476 3.36189ZM5.17664 6.72697C5.40607 6.88065 5.46748 7.19122 5.31381 7.42065C4.71479 8.31495 4.29592 9.32039 4.08283 10.3755C4.02817 10.6461 3.76442 10.8213 3.49374 10.7666C3.22307 10.7119 3.04796 10.4482 3.10262 10.1775C3.34159 8.9943 3.81121 7.86704 4.48297 6.86414C4.63664 6.63471 4.94721 6.5733 5.17664 6.72697ZM19.0913 6.7546C19.3214 6.60189 19.6317 6.66461 19.7844 6.89468C20.1119 7.38808 20.3961 7.92016 20.6298 8.4877C20.8635 9.05524 21.0365 9.63316 21.1514 10.2141C21.205 10.485 21.0289 10.748 20.758 10.8016C20.4871 10.8552 20.224 10.6791 20.1704 10.4082C20.0681 9.89084 19.9139 9.37548 19.7052 8.86851C19.4964 8.36154 19.2429 7.8871 18.9512 7.44769C18.7985 7.21762 18.8612 6.90731 19.0913 6.7546ZM3.488 13.1806C3.75889 13.127 4.02194 13.3032 4.07555 13.574C4.17792 14.0914 4.33205 14.6068 4.54084 15.1137C4.74963 15.6207 5.00314 16.0951 5.29479 16.5345C5.4475 16.7646 5.38479 17.0749 5.15471 17.2276C4.92464 17.3803 4.61433 17.3176 4.46162 17.0876C4.13413 16.5942 3.84992 16.0621 3.61618 15.4945L4.07423 15.3059L3.61618 15.4945C3.38245 14.927 3.20952 14.3491 3.09457 13.7682C3.04096 13.4973 3.21711 13.2342 3.488 13.1806ZM20.7522 13.2157C21.0229 13.2703 21.198 13.5341 21.1434 13.8047C20.9044 14.9879 20.4348 16.1152 19.763 17.1181C19.6094 17.3475 19.2988 17.4089 19.0694 17.2553C18.8399 17.1016 18.7785 16.791 18.9322 16.5616C19.5312 15.6673 19.9501 14.6618 20.1632 13.6068C20.2178 13.3361 20.4816 13.161 20.7522 13.2157ZM6.85882 18.9375C7.0125 18.708 7.32307 18.6466 7.5525 18.8003C8.44679 19.3993 9.45225 19.8182 10.5073 20.0313C10.778 20.0859 10.9531 20.3497 10.8984 20.6204C10.8438 20.891 10.58 21.0661 10.3094 21.0115C9.12615 20.7725 7.99889 20.3029 6.99599 19.6312C6.76656 19.4775 6.70515 19.1669 6.85882 18.9375ZM17.3595 18.9594C17.5122 19.1894 17.4495 19.4997 17.2194 19.6524C16.726 19.9799 16.1939 20.2641 15.6264 20.4979C15.0589 20.7316 14.4809 20.9045 13.9 21.0195C13.6291 21.0731 13.3661 20.897 13.3125 20.6261C13.2589 20.3552 13.435 20.0921 13.7059 20.0385C14.2232 19.9361 14.7386 19.782 15.2456 19.5732L15.436 20.0355L15.2456 19.5732C15.7526 19.3644 16.227 19.1109 16.6664 18.8193C16.8965 18.6666 17.2068 18.7293 17.3595 18.9594Z" fill="white"/>
<path fill-rule="evenodd" clip-rule="evenodd" d="M12.1366 6.95117C12.3081 6.95117 12.4665 7.04266 12.5523 7.19117L15.1451 11.6822L18.0029 9.77141C18.1654 9.66274 18.3777 9.66351 18.5394 9.7734C18.7012 9.88328 18.7801 10.0803 18.7389 10.2714L17.6194 15.4734L17.1317 15.3422C16.0973 15.064 15.123 14.8674 14.1754 14.7512L14.1111 14.7434C13.506 14.6714 12.9115 14.6323 12.3189 14.6256C12.2581 14.6249 12.1974 14.6246 12.1366 14.6246C12.0758 14.6246 12.015 14.6249 11.9542 14.6256C11.3616 14.6323 10.7671 14.6714 10.1621 14.7434L10.0977 14.7512C9.15014 14.8674 8.17581 15.064 7.14141 15.3422L6.65373 15.4734L5.5342 10.2714C5.49307 10.0803 5.572 9.88328 5.73374 9.7734C5.8955 9.66351 6.10771 9.66274 6.27026 9.77141L9.12801 11.6822L11.7209 7.19117C11.8066 7.04266 11.9651 6.95117 12.1366 6.95117ZM8.64698 12.5154L6.72213 11.2284L7.38071 14.2885C7.70858 14.2069 8.03174 14.1332 8.35123 14.0674C8.19035 13.7312 8.18243 13.32 8.39534 12.9512L8.64698 12.5154ZM10.0398 13.7912H9.43459C9.24983 13.7912 9.13435 13.5912 9.22672 13.4312L9.44675 13.0501L10.4839 13.7436C10.3362 13.7576 10.1883 13.7734 10.0398 13.7912ZM13.7893 13.7436C13.9369 13.7576 14.0849 13.7734 14.2333 13.7912H14.8386C15.0233 13.7912 15.1388 13.5912 15.0464 13.4312L14.8264 13.0501L13.7893 13.7436ZM14.3454 12.2169L12.6166 9.22256V13.3728L14.3454 12.2169ZM11.6566 13.3728L9.92779 12.2169L11.6566 9.22256V13.3728ZM15.6262 12.5154L15.8778 12.9512C16.0907 13.32 16.0828 13.7312 15.9219 14.0674C16.2414 14.1332 16.5646 14.2069 16.8924 14.2885L17.551 11.2284L15.6262 12.5154ZM12.1366 16.112C12.0758 16.112 12.015 16.1124 11.9542 16.1131C10.6979 16.1272 9.43305 16.2874 8.07662 16.5968C7.53995 16.7192 6.98575 16.4468 6.77841 15.9369C8.56019 15.4576 10.3081 15.1715 11.9434 15.1531C12.0078 15.1524 12.0722 15.152 12.1366 15.152C12.201 15.152 12.2653 15.1524 12.3297 15.1531C13.965 15.1715 15.713 15.4576 17.4947 15.9369C17.2874 16.4468 16.7332 16.7192 16.1965 16.5968C14.8401 16.2874 13.5752 16.1272 12.3189 16.1131C12.2581 16.1124 12.1974 16.112 12.1366 16.112Z" fill="white"/>
</svg>

<svg xmlns="http://www.w3.org/2000/svg" width="24" height="24" viewBox="0 0 24 24" fill="none"><path fill="#fff" fill-rule="evenodd" d="M10.346 2.963a.5.5 0 1 1 .194.98 8.2 8.2 0 0 0-2.96 1.22.5.5 0 1 1-.553-.833 9 9 0 0 1 1.593-.846l.188.458-.188-.458a9 9 0 0 1 1.726-.521m3.002.399a.5.5 0 0 1 .589-.391 9.3 9.3 0 0 1 3.313 1.38.5.5 0 1 1-.556.83 8.3 8.3 0 0 0-2.955-1.23.5.5 0 0 1-.391-.59M5.177 6.727a.5.5 0 0 1 .137.694 8.3 8.3 0 0 0-1.231 2.955.5.5 0 0 1-.98-.198 9.3 9.3 0 0 1 1.38-3.314.5.5 0 0 1 .694-.137m13.914.028a.5.5 0 0 1 .693.14 9.2 9.2 0 0 1 1.367 3.32.5.5 0 1 1-.98.193 8.2 8.2 0 0 0-1.22-2.96.5.5 0 0 1 .14-.693M3.488 13.18a.5.5 0 0 1 .588.393 8.2 8.2 0 0 0 1.219 2.96.5.5 0 0 1-.833.554 9 9 0 0 1-.846-1.594l.458-.188-.458.189a9 9 0 0 1-.521-1.727.5.5 0 0 1 .393-.587m17.264.035a.5.5 0 0 1 .391.589 9.3 9.3 0 0 1-1.38 3.313.5.5 0 0 1-.83-.556 8.3 8.3 0 0 0 1.23-2.955.5.5 0 0 1 .59-.391M6.86 18.938a.5.5 0 0 1 .694-.138 8.3 8.3 0 0 0 2.954 1.231.5.5 0 1 1-.198.98 9.3 9.3 0 0 1-3.313-1.38.5.5 0 0 1-.137-.694m10.5.021a.5.5 0 0 1-.14.693 9.3 9.3 0 0 1-3.32 1.369.5.5 0 1 1-.194-.98 8 8 0 0 0 1.54-.466l.19.462-.19-.462a8 8 0 0 0 1.42-.754.5.5 0 0 1 .694.14M12.137 6.951a.48.48 0 0 1 .415.24l2.593 4.491 2.858-1.91a.48.48 0 0 1 .736.5l-1.12 5.201-.487-.13a21 21 0 0 0-2.957-.592l-.064-.008a17 17 0 0 0-2.157-.117 17 17 0 0 0-1.792.117l-.064.008a21 21 0 0 0-2.957.591l-.487.131-1.12-5.202a.48.48 0 0 1 .736-.5l2.858 1.911 2.593-4.49a.48.48 0 0 1 .416-.24m-3.49 5.564-1.925-1.287.659 3.06q.491-.122.97-.22a1.19 1.19 0 0 1 .044-1.117zm1.393 1.276h-.605a.24.24 0 0 1-.208-.36l.22-.38 1.037.693q-.222.021-.444.047m3.75-.047q.22.021.443.047h.606c.184 0 .3-.2.207-.36l-.22-.38zm.555-1.527-1.728-2.994v4.15zm-2.688 1.156-1.73-1.156 1.73-2.994zm3.97-.858.25.436c.214.369.206.78.045 1.116q.48.099.97.222l.659-3.06zm-3.49 3.597-.183.001c-1.256.014-2.521.174-3.877.484a1.125 1.125 0 0 1-1.299-.66c1.782-.48 3.53-.765 5.165-.784a18 18 0 0 1 .387 0c1.635.018 3.383.305 5.165.784-.208.51-.762.782-1.299.66-1.356-.31-2.62-.47-3.877-.484z" clip-rule="evenodd"/></svg>
